x-pack/solutions/security/packages/kbn-cloud-security-posture/graph/src/assets/icons/okta.svg

<svg width="24" height="24" viewBox="0 0 24 24" fill="none" xmlns="http://www.w3.org/2000/svg">
<path d="M13.2042 0.166667L12.7105 6.24667C12.477 6.22 12.2435 6.20667 12.0033 6.20667C11.7031 6.20667 11.4096 6.22667 11.1227 6.27333L10.8425 3.32667C10.8359 3.23333 10.9093 3.15333 11.0027 3.15333H11.503L11.2628 0.173333C11.2562 0.08 11.3295 0 11.4163 0H13.0507C13.1441 0 13.2175 0.08 13.2042 0.173333V0.166667ZM9.08135 0.466667C9.05467 0.38 8.96127 0.326667 8.87454 0.36L7.34017 0.92C7.25344 0.953333 7.21342 1.05333 7.25344 1.13333L8.50096 3.85333L8.0273 4.02667C7.94058 4.06 7.90055 4.16 7.94058 4.24L9.21478 6.91333C9.67509 6.66 10.1754 6.46667 10.7025 6.34667L9.08802 0.466667H9.08135ZM5.3188 2.16L8.84786 7.13333C8.40089 7.42667 7.99395 7.77333 7.64704 8.17333L5.53227 6.09333C5.46556 6.02667 5.47223 5.92 5.53894 5.86L5.92587 5.54L3.82445 3.41333C3.75774 3.34667 3.76441 3.24 3.83779 3.18L5.0853 2.13333C5.15869 2.07333 5.25875 2.08667 5.31212 2.16H5.3188ZM2.35678 5.04C2.2834 4.98667 2.17666 5.01333 2.12996 5.09333L1.31608 6.50667C1.26938 6.58667 1.30273 6.68667 1.38279 6.72667L4.0913 8.00667L3.83779 8.44C3.79109 8.52 3.82445 8.62667 3.91117 8.66L6.60634 9.89333C6.7998 9.39333 7.05998 8.92667 7.3802 8.50667L2.35678 5.04ZM0.362095 8.88C0.375438 8.78667 0.468835 8.73333 0.55556 8.75333L6.45957 10.2933C6.30613 10.7933 6.21941 11.32 6.20606 11.8667L3.25072 11.6267C3.15733 11.62 3.09062 11.5333 3.11063 11.44L3.19735 10.9467L0.215329 10.6667C0.121932 10.66 0.0618914 10.5733 0.0752338 10.48L0.355424 8.87333L0.362095 8.88ZM0.141946 12.8667C0.048549 12.8733 -0.0114917 12.96 0.00185067 13.0533L0.288712 14.66C0.302055 14.7533 0.395451 14.8067 0.482177 14.7867L3.37748 14.0333L3.4642 14.5267C3.47754 14.62 3.57094 14.6733 3.65767 14.6533L6.51294 13.8667C6.34616 13.3733 6.23942 12.8467 6.21274 12.3067L0.135275 12.8667H0.141946ZM1.08926 17.0933C1.04256 17.0133 1.07591 16.9133 1.15597 16.8733L6.66638 14.26C6.87318 14.7533 7.15337 15.2133 7.48693 15.6267L5.07196 17.3467C4.99858 17.4 4.89184 17.38 4.84514 17.3L4.59163 16.86L2.12996 18.56C2.05658 18.6133 1.94984 18.5867 1.90314 18.5067L1.08258 17.0933H1.08926ZM7.76713 15.9467L3.47754 20.2867C3.41083 20.3533 3.4175 20.46 3.49089 20.52L4.74507 21.5667C4.81846 21.6267 4.91852 21.6133 4.97189 21.54L6.7064 19.1L7.09333 19.4267C7.16672 19.4867 7.27346 19.4733 7.32683 19.3933L9.00797 16.9533C8.55433 16.6733 8.13404 16.3333 7.7738 15.9467H7.76713ZM6.91988 22.9133C6.83316 22.88 6.79313 22.78 6.83316 22.7L9.37488 17.1533C9.84187 17.3933 10.3489 17.5733 10.8759 17.6733L10.1287 20.54C10.1087 20.6267 10.0086 20.68 9.92192 20.6467L9.44827 20.4733L8.65439 23.36C8.62771 23.4467 8.53431 23.5 8.44759 23.4667L6.91321 22.9067L6.91988 22.9133ZM11.2962 17.7467L10.8025 23.8267C10.7958 23.92 10.8692 24 10.956 24H12.5904C12.6838 24 12.7572 23.92 12.7438 23.8267L12.5037 20.8467H13.004C13.0974 20.8467 13.1708 20.7667 13.1641 20.6733L12.8839 17.7267C12.5971 17.7733 12.3035 17.7933 12.0033 17.7933C11.7632 17.7933 11.5297 17.78 11.2962 17.7467ZM17.1802 1.28667C17.2202 1.2 17.1802 1.10667 17.0935 1.07333L15.5591 0.513333C15.4724 0.48 15.379 0.533333 15.3523 0.62L14.5584 3.50667L14.0847 3.33333C13.998 3.3 13.9046 3.35333 13.8779 3.44L13.1308 6.30667C13.6645 6.41333 14.1648 6.59333 14.6318 6.82667L17.1802 1.28667ZM20.5291 3.70667L16.2395 8.04667C15.8793 7.66 15.4657 7.32 15.0054 7.04L16.6865 4.6C16.7399 4.52667 16.8466 4.50667 16.92 4.56667L17.3069 4.89333L19.0415 2.45333C19.0948 2.38 19.2016 2.36667 19.2683 2.42667L20.5225 3.47333C20.5958 3.53333 20.5958 3.64 20.5358 3.70667H20.5291ZM22.8507 7.12C22.9374 7.08 22.9641 6.98 22.9174 6.9L22.0969 5.48667C22.0502 5.40667 21.9434 5.38667 21.87 5.43333L19.4084 7.13333L19.1549 6.7C19.1082 6.62 19.0014 6.59333 18.928 6.65333L16.5131 8.37333C16.8466 8.78667 17.1201 9.24667 17.3336 9.74L22.844 7.12667L22.8507 7.12ZM23.718 9.33333L23.9981 10.94C24.0115 11.0333 23.9515 11.1133 23.8581 11.1267L17.7806 11.6933C17.7539 11.1467 17.6472 10.6267 17.4804 10.1333L20.3357 9.34667C20.4224 9.32 20.5158 9.38 20.5291 9.47333L20.6159 9.96667L23.5112 9.21333C23.5979 9.19333 23.6913 9.24667 23.7046 9.34L23.718 9.33333ZM23.4444 15.2333C23.5312 15.2533 23.6246 15.2 23.6379 15.1067L23.9181 13.5C23.9314 13.4067 23.8714 13.3267 23.778 13.3133L20.796 13.0333L20.8827 12.54C20.896 12.4467 20.836 12.3667 20.7426 12.3533L17.7873 12.1133C17.7739 12.66 17.6872 13.1867 17.5338 13.6867L23.4378 15.2267L23.4444 15.2333ZM21.87 18.9C21.8233 18.98 21.7166 19 21.6432 18.9533L16.6198 15.4867C16.94 15.0667 17.2002 14.6 17.3937 14.1L20.0888 15.3333C20.1756 15.3733 20.2089 15.4733 20.1622 15.5533L19.9087 15.9867L22.6172 17.2667C22.6973 17.3067 22.7306 17.4067 22.6839 17.4867L21.87 18.9ZM15.1521 16.8533L18.6812 21.8267C18.7346 21.9 18.8413 21.9133 18.908 21.8533L20.1555 20.8067C20.2289 20.7467 20.2289 20.64 20.1689 20.5733L18.0675 18.4467L18.4544 18.1267C18.5278 18.0667 18.5278 17.96 18.4611 17.8933L16.3463 15.8133C15.9927 16.2133 15.5924 16.5667 15.1455 16.8533H15.1521ZM15.1188 23.6267C15.0321 23.66 14.9387 23.6067 14.912 23.52L13.2975 17.64C13.8246 17.52 14.3249 17.3267 14.7852 17.0733L16.0594 19.7467C16.0995 19.8333 16.0594 19.9333 15.9727 19.96L15.499 20.1333L16.7466 22.8533C16.7866 22.94 16.7466 23.0333 16.6598 23.0667L15.1255 23.6267H15.1188Z" fill="black"/>
</svg>

<svg xmlns="http://www.w3.org/2000/svg" width="24" height="24" fill="none"><path fill="#000" d="m13.204.167-.494 6.08a6 6 0 0 0-.707-.04q-.45-.001-.88.066l-.28-2.946a.16.16 0 0 1 .16-.174h.5l-.24-2.98C11.256.08 11.329 0 11.416 0h1.635c.093 0 .166.08.153.173zm-4.123.3C9.055.38 8.961.327 8.875.36L7.34.92a.156.156 0 0 0-.087.213l1.248 2.72-.474.174c-.086.033-.126.133-.086.213l1.274 2.673c.46-.253.96-.446 1.488-.566L9.088.467zM5.32 2.16l3.529 4.973c-.447.294-.854.64-1.201 1.04l-2.115-2.08a.16.16 0 0 1 .007-.233l.387-.32-2.102-2.127a.156.156 0 0 1 .014-.233l1.247-1.047a.154.154 0 0 1 .227.027zM2.357 5.04c-.074-.053-.18-.027-.227.053l-.814 1.414a.157.157 0 0 0 .067.22l2.708 1.28-.253.433a.153.153 0 0 0 .073.22l2.695 1.233c.194-.5.454-.966.774-1.386zM.362 8.88c.013-.093.107-.147.194-.127l5.904 1.54q-.232.752-.254 1.574l-2.955-.24a.154.154 0 0 1-.14-.187l.086-.493-2.982-.28c-.093-.007-.153-.094-.14-.187l.28-1.607zm-.22 3.987c-.093.006-.153.093-.14.186l.287 1.607c.013.093.106.147.193.127l2.895-.754.087.494c.014.093.107.146.194.126l2.855-.786a5.8 5.8 0 0 1-.3-1.56l-6.078.56zm.947 4.226a.157.157 0 0 1 .067-.22l5.51-2.613c.207.493.487.953.82 1.367l-2.414 1.72a.157.157 0 0 1-.227-.047l-.253-.44-2.462 1.7c-.073.053-.18.027-.227-.053l-.82-1.414zm6.678-1.146-4.29 4.34a.156.156 0 0 0 .014.233l1.254 1.047c.073.06.174.046.227-.027l1.734-2.44.387.327c.074.06.18.046.234-.034l1.681-2.44a6 6 0 0 1-1.234-1.006zm-.847 6.966a.156.156 0 0 1-.087-.213l2.542-5.547c.467.24.974.42 1.5.52l-.746 2.867a.157.157 0 0 1-.207.107l-.474-.174-.794 2.887c-.026.087-.12.14-.206.107l-1.535-.56zm4.376-5.166-.493 6.08c-.007.093.066.173.153.173h1.634c.094 0 .167-.08.154-.173l-.24-2.98h.5c.093 0 .167-.08.16-.174l-.28-2.946q-.43.068-.88.066-.358.002-.708-.046m5.884-16.46c.04-.087 0-.18-.087-.214L15.56.513c-.087-.033-.18.02-.207.107l-.794 2.887-.473-.174c-.087-.033-.18.02-.207.107l-.747 2.867a6 6 0 0 1 1.5.52zm3.35 2.42-4.29 4.34a5.8 5.8 0 0 0-1.235-1.007l1.681-2.44a.163.163 0 0 1 .234-.033l.387.326 1.735-2.44a.155.155 0 0 1 .226-.026l1.255 1.046c.073.06.073.167.013.234zm2.32 3.413a.153.153 0 0 0 .067-.22l-.82-1.413a.164.164 0 0 0-.227-.054l-2.462 1.7-.253-.433c-.047-.08-.154-.107-.227-.047l-2.415 1.72c.334.414.607.874.82 1.367l5.511-2.613zm.868 2.213.28 1.607a.16.16 0 0 1-.14.187l-6.077.566a5.7 5.7 0 0 0-.3-1.56l2.855-.786a.153.153 0 0 1 .193.126l.087.494 2.895-.754c.087-.02.18.034.194.127zm-.274 5.9c.087.02.18-.033.194-.126l.28-1.607a.16.16 0 0 0-.14-.187l-2.982-.28.087-.493a.16.16 0 0 0-.14-.187l-2.956-.24a5.8 5.8 0 0 1-.253 1.574l5.904 1.54zM21.87 18.9a.164.164 0 0 1-.227.053l-5.023-3.466c.32-.42.58-.887.774-1.387l2.695 1.233c.087.04.12.14.073.22l-.253.434 2.708 1.28c.08.04.114.14.067.22zm-6.718-2.047 3.53 4.974c.053.073.16.086.226.026l1.247-1.046a.16.16 0 0 0 .014-.234l-2.102-2.126.387-.32c.074-.06.074-.167.007-.234l-2.115-2.08c-.353.4-.754.754-1.2 1.04zm-.033 6.774c-.087.033-.18-.02-.207-.107l-1.615-5.88a5.7 5.7 0 0 0 1.488-.567l1.274 2.674c.04.086 0 .186-.086.213l-.474.173 1.248 2.72c.04.087 0 .18-.087.214l-1.534.56z"/></svg>
